packages/icons/src/__generated__/nav/svg/nav-developerAPIProduct-16-active.svg

<svg xmlns="http://www.w3.org/2000/svg" fill="#1652F0" viewBox="0 0 16 16"><path d="M8.99 3.994v-3h6v6.001h-3v2h3v6.002h-6v-3H6.988v3H.987V8.995h3v-2h-3V.994H6.99v3h2Zm1.6-1.4v1.4h1.4v1.4h1.4v-2.8h-2.8Zm-5.202 1.4v-1.4h-2.8v2.8h1.4v-1.4h1.4Zm-1.4 6.602h-1.4v2.8h2.8v-1.4h-1.4v-1.4Zm6.601 1.4v1.4h2.801v-2.8h-1.4v1.4h-1.4Z"/></svg>

<svg xmlns="http://www.w3.org/2000/svg" fill="#1652F0" viewBox="0 0 16 16"><path d="M9.002 4V1h6.001v6.002h-3v2h3v6.001H9.002v-3h-2v3H1V9.002h3v-2H1V1h6.002v3h2Zm1.6-1.4V4h1.4v1.401h1.401v-2.8h-2.8ZM5.402 4V2.6H2.6v2.801H4v-1.4h1.4ZM4 10.603H2.6v2.801h2.8v-1.4H4v-1.4Zm6.601 1.4v1.401h2.801v-2.8h-1.4v1.4h-1.4Z"/></svg>
